src/icons/editorconfig.svg

<?xml version="1.0" encoding="UTF-8"?>
<svg xmlns="http://www.w3.org/2000/svg" xmlns:xlink="http://www.w3.org/1999/xlink" width="23.040001" height="32" viewBox="0 0 23.040001 32" version="1.1">
<defs>
<linearGradient id="linear0" gradientUnits="userSpaceOnUse" x1="36" y1="3" x2="36" y2="101" gradientTransform="matrix(1,0,0,-1,0,102)">
<stop offset="0" style="stop-color:rgb(78.431374%,83.137256%,85.882354%);stop-opacity:1;"/>
<stop offset="0.139" style="stop-color:rgb(84.705883%,88.235295%,90.196079%);stop-opacity:1;"/>
<stop offset="0.359" style="stop-color:rgb(92.156863%,94.117647%,95.294118%);stop-opacity:1;"/>
<stop offset="0.617" style="stop-color:rgb(97.647059%,98.039216%,98.431373%);stop-opacity:1;"/>
<stop offset="1" style="stop-color:rgb(100%,100%,100%);stop-opacity:1;"/>
</linearGradient>
<filter id="alpha" filterUnits="objectBoundingBox" x="0%" y="0%" width="100%" height="100%">
  <feColorMatrix type="matrix" in="SourceGraphic" values="0 0 0 0 1 0 0 0 0 1 0 0 0 0 1 0 0 0 1 0"/>
</filter>
<image id="image14" width="24" height="32" xlink:href="data:image/png;base64,iVBORw0KGgoAAAANSUhEUgAAABgAAAAgCAYAAAAIXrg4AAAABmJLR0QA/wD/AP+gvaeTAAAAV0lEQVRIiWNgGAWjYBQwovH5GBgYFCkw7zEDA8M7ZAEWNAXWDAwMcyiwoISBgWE5sgATBYYRBUYtGLVg1IJRC0aEBejF9QMGBoYFFJh3iwK9o2AUDBQAAM3TBnKKkerOAAAAAElFTkSuQmCC"/>
<mask id="mask0">
  <g filter="url(#alpha)">
<use xlink:href="#image14"/>
  </g>
</mask>
<linearGradient id="linear1" gradientUnits="userSpaceOnUse" x1="36.200001" y1="27.299999" x2="36.200001" y2="68.300003" gradientTransform="matrix(1,0,0,-1,0,100)">
<stop offset="0" style="stop-color:rgb(67.843139%,80.000001%,86.274511%);stop-opacity:1;"/>
<stop offset="1" style="stop-color:rgb(29.803923%,42.352942%,48.235294%);stop-opacity:1;"/>
</linearGradient>
<linearGradient id="linear2" gradientUnits="userSpaceOnUse" x1="36.200001" y1="26.799999" x2="36.200001" y2="68.800003" gradientTransform="matrix(1,0,0,-1,0,100)">
<stop offset="0" style="stop-color:rgb(67.843139%,80.000001%,86.274511%);stop-opacity:1;"/>
<stop offset="1" style="stop-color:rgb(29.803923%,42.352942%,48.235294%);stop-opacity:1;"/>
</linearGradient>
<linearGradient id="linear3" gradientUnits="userSpaceOnUse" x1="50.799999" y1="27.299999" x2="50.799999" y2="68.300003" gradientTransform="matrix(1,0,0,-1,0,100)">
<stop offset="0" style="stop-color:rgb(67.843139%,80.000001%,86.274511%);stop-opacity:1;"/>
<stop offset="1" style="stop-color:rgb(29.803923%,42.352942%,48.235294%);stop-opacity:1;"/>
</linearGradient>
<linearGradient id="linear4" gradientUnits="userSpaceOnUse" x1="50.799999" y1="26.799999" x2="50.799999" y2="68.800003" gradientTransform="matrix(1,0,0,-1,0,100)">
<stop offset="0" style="stop-color:rgb(67.843139%,80.000001%,86.274511%);stop-opacity:1;"/>
<stop offset="1" style="stop-color:rgb(29.803923%,42.352942%,48.235294%);stop-opacity:1;"/>
</linearGradient>
<linearGradient id="linear5" gradientUnits="userSpaceOnUse" x1="21.4" y1="27.299999" x2="21.4" y2="68.300003" gradientTransform="matrix(1,0,0,-1,0,100)">
<stop offset="0" style="stop-color:rgb(67.843139%,80.000001%,86.274511%);stop-opacity:1;"/>
<stop offset="1" style="stop-color:rgb(29.803923%,42.352942%,48.235294%);stop-opacity:1;"/>
</linearGradient>
<linearGradient id="linear6" gradientUnits="userSpaceOnUse" x1="21.4" y1="26.799999" x2="21.4" y2="68.800003" gradientTransform="matrix(1,0,0,-1,0,100)">
<stop offset="0" style="stop-color:rgb(67.843139%,80.000001%,86.274511%);stop-opacity:1;"/>
<stop offset="1" style="stop-color:rgb(29.803923%,42.352942%,48.235294%);stop-opacity:1;"/>
</linearGradient>
<clipPath id="clip2">
  <rect x="0" y="0" width="24" height="32"/>
</clipPath>
<g id="surface13" clip-path="url(#clip2)">
<path style="fill-rule:nonzero;fill:url(#linear1);stroke-width:1;stroke-linecap:butt;stroke-linejoin:miter;stroke:url(#linear2);stroke-miterlimit:10;" d="M 42.004395 46.398927 C 42.004395 43.896485 40.502931 41.894532 38.305665 41.003419 L 38.305665 33.703614 C 38.305665 32.495118 37.402345 31.604005 36.206055 31.604005 C 34.997559 31.604005 34.094239 32.495118 34.094239 33.703614 L 34.094239 41.003419 C 31.896973 41.796876 30.395508 43.896485 30.395508 46.398927 C 30.395508 48.901368 31.896973 51.000978 34.094239 51.794435 C 34.094239 51.904298 33.996583 52.099611 33.996583 52.197267 L 33.996583 70.60547 C 33.996583 71.801759 34.899903 72.70508 36.096192 72.70508 C 37.304688 72.70508 38.195802 71.801759 38.195802 70.60547 L 38.195802 52.197267 C 38.195802 52.001954 38.195802 51.904298 38.098145 51.794435 C 40.502931 51.000978 42.004395 48.901368 42.004395 46.398927 Z M 36.206055 47.998048 C 35.778809 48.010255 35.36377 47.839357 35.058595 47.534181 C 34.753419 47.241212 34.594727 46.826173 34.594727 46.398927 C 34.594727 45.495606 35.302735 44.799806 36.206055 44.799806 C 37.097169 44.799806 37.805177 45.495606 37.805177 46.398927 C 37.805177 47.302247 37.097169 47.998048 36.206055 47.998048 Z M 36.206055 47.998048 " transform="matrix(0.32,0,0,0.32,0,0)"/>
<path style="fill-rule:nonzero;fill:url(#linear3);stroke-width:1;stroke-linecap:butt;stroke-linejoin:miter;stroke:url(#linear4);stroke-miterlimit:10;" d="M 53.002931 33.80127 C 53.002931 32.604981 52.099611 31.701661 50.903321 31.701661 C 49.694825 31.701661 48.803712 32.604981 48.803712 33.80127 L 48.803712 51.000978 C 46.594239 51.794435 45.104981 53.894044 45.104981 56.396486 C 45.104981 58.898927 46.594239 60.998537 48.803712 61.804201 C 48.803712 61.901857 48.706056 62.097169 48.706056 62.194826 L 48.706056 70.60547 C 48.706056 71.801759 49.597169 72.70508 50.805665 72.70508 C 52.001954 72.70508 52.905275 71.801759 52.905275 70.60547 L 52.905275 62.194826 C 52.905275 61.999513 52.905275 61.901857 52.795411 61.804201 C 55.004884 60.998537 56.494142 58.898927 56.494142 56.396486 C 56.494142 53.894044 55.004884 51.904298 52.795411 51.000978 L 52.795411 33.80127 Z M 50.903321 57.995607 C 50.476075 58.007814 50.061036 57.836915 49.768068 57.53174 C 49.462892 57.238771 49.291993 56.823732 49.3042 56.396486 C 49.3042 55.505372 50.000001 54.797365 50.903321 54.797365 C 51.794435 54.797365 52.502443 55.505372 52.502443 56.396486 C 52.502443 57.299806 51.794435 57.995607 50.903321 57.995607 Z M 50.903321 57.995607 " transform="matrix(0.32,0,0,0.32,0,0)"/>
<path style="fill-rule:nonzero;fill:url(#linear5);stroke-width:1;stroke-linecap:butt;stroke-linejoin:miter;stroke:url(#linear6);stroke-miterlimit:10;" d="M 19.396973 70.60547 C 19.396973 71.801759 20.300293 72.70508 21.496583 72.70508 C 22.705079 72.70508 23.596192 71.801759 23.596192 70.60547 L 23.596192 62.194826 C 23.596192 61.999513 23.596192 61.901857 23.498536 61.804201 C 25.695801 60.998537 27.197266 58.898927 27.197266 56.396486 C 27.197266 53.894044 25.695801 51.904298 23.498536 51.000978 L 23.498536 33.80127 C 23.498536 32.604981 22.595215 31.701661 21.398926 31.701661 C 20.202637 31.701661 19.299317 32.604981 19.299317 33.80127 L 19.299317 51.000978 C 17.102051 51.794435 15.600586 53.894044 15.600586 56.396486 C 15.600586 58.898927 17.102051 60.998537 19.299317 61.804201 C 19.299317 61.901857 19.201661 62.097169 19.201661 62.194826 L 19.201661 70.60547 Z M 21.496583 54.797365 C 22.399903 54.797365 23.095704 55.505372 23.095704 56.396486 C 23.095704 57.299806 22.399903 57.995607 21.496583 57.995607 C 20.605469 57.995607 19.897461 57.299806 19.897461 56.396486 C 19.897461 55.505372 20.605469 54.797365 21.496583 54.797365 Z M 21.496583 54.797365 " transform="matrix(0.32,0,0,0.32,0,0)"/>
</g>
<clipPath id="clip1">
  <rect x="0" y="0" width="24" height="32"/>
</clipPath>
<g id="surface16" clip-path="url(#clip1)">
<use xlink:href="#surface13" mask="url(#mask0)"/>
</g>
<linearGradient id="linear7" gradientUnits="userSpaceOnUse" x1="45.036999" y1="74.186996" x2="58.536999" y2="87.686996" gradientTransform="matrix(1,0,0,-1,0,102)">
<stop offset="0" style="stop-color:rgb(100%,100%,100%);stop-opacity:1;"/>
<stop offset="0.35" style="stop-color:rgb(98.039216%,98.431373%,98.431373%);stop-opacity:1;"/>
<stop offset="0.532" style="stop-color:rgb(92.941177%,94.509804%,95.686275%);stop-opacity:1;"/>
<stop offset="0.675" style="stop-color:rgb(86.666667%,89.803922%,91.37255%);stop-opacity:1;"/>
<stop offset="0.799" style="stop-color:rgb(78.039217%,82.745099%,85.490197%);stop-opacity:1;"/>
<stop offset="0.908" style="stop-color:rgb(67.843139%,74.117649%,78.039217%);stop-opacity:1;"/>
<stop offset="1" style="stop-color:rgb(57.254905%,64.705884%,69.01961%);stop-opacity:1;"/>
</linearGradient>
</defs>
<g id="surface1">
<path style="fill-rule:nonzero;fill:url(#linear0);stroke-width:2;stroke-linecap:butt;stroke-linejoin:miter;stroke:rgb(44.313726%,56.862748%,63.137257%);stroke-opacity:1;stroke-miterlimit:4;" d="M 44.995118 1.000977 L 71.997072 27.697755 L 71.997072 98.999026 L 0 98.999026 L 0 1.000977 Z M 44.995118 1.000977 " transform="matrix(0.32,0,0,0.32,0,0)"/>
<use xlink:href="#surface16"/>
<path style="fill-rule:nonzero;fill:url(#linear7);stroke-width:2;stroke-linecap:butt;stroke-linejoin:bevel;stroke:rgb(44.313726%,56.862748%,63.137257%);stroke-opacity:1;stroke-miterlimit:4;" d="M 44.995118 1.000977 L 71.997072 27.697755 L 44.995118 27.697755 Z M 44.995118 1.000977 " transform="matrix(0.32,0,0,0.32,0,0)"/>
</g>
</svg>

<svg xmlns:xlink="http://www.w3.org/1999/xlink" role="img" viewBox="0 0 23.04 32" xmlns="http://www.w3.org/2000/svg"><defs><linearGradient gradientTransform="matrix(1 0 0 -1 0 102)" gradientUnits="userSpaceOnUse" id="i" x1="36" x2="36" y1="3" y2="101"><stop offset="0" style="stop-color:rgb(78.431374%,83.137256%,85.882354%);stop-opacity:1"/><stop offset=".139" style="stop-color:rgb(84.705883%,88.235295%,90.196079%);stop-opacity:1"/><stop offset=".359" style="stop-color:rgb(92.156863%,94.117647%,95.294118%);stop-opacity:1"/><stop offset=".617" style="stop-color:rgb(97.647059%,98.039216%,98.431373%);stop-opacity:1"/><stop offset="1" style="stop-color:rgb(100%,100%,100%);stop-opacity:1"/></linearGradient><linearGradient gradientTransform="matrix(1 0 0 -1 0 100)" gradientUnits="userSpaceOnUse" id="c" x1="36.2" x2="36.2" y1="27.3" y2="68.3"><stop offset="0" style="stop-color:rgb(67.843139%,80.000001%,86.274511%);stop-opacity:1"/><stop offset="1" style="stop-color:rgb(29.803923%,42.352942%,48.235294%);stop-opacity:1"/></linearGradient><linearGradient gradientTransform="matrix(1 0 0 -1 0 100)" gradientUnits="userSpaceOnUse" id="d" x1="36.2" x2="36.2" y1="26.8" y2="68.8"><stop offset="0" style="stop-color:rgb(67.843139%,80.000001%,86.274511%);stop-opacity:1"/><stop offset="1" style="stop-color:rgb(29.803923%,42.352942%,48.235294%);stop-opacity:1"/></linearGradient><linearGradient gradientTransform="matrix(1 0 0 -1 0 100)" gradientUnits="userSpaceOnUse" id="e" x1="50.8" x2="50.8" y1="27.3" y2="68.3"><stop offset="0" style="stop-color:rgb(67.843139%,80.000001%,86.274511%);stop-opacity:1"/><stop offset="1" style="stop-color:rgb(29.803923%,42.352942%,48.235294%);stop-opacity:1"/></linearGradient><linearGradient gradientTransform="matrix(1 0 0 -1 0 100)" gradientUnits="userSpaceOnUse" id="f" x1="50.8" x2="50.8" y1="26.8" y2="68.8"><stop offset="0" style="stop-color:rgb(67.843139%,80.000001%,86.274511%);stop-opacity:1"/><stop offset="1" style="stop-color:rgb(29.803923%,42.352942%,48.235294%);stop-opacity:1"/></linearGradient><linearGradient gradientTransform="matrix(1 0 0 -1 0 100)" gradientUnits="userSpaceOnUse" id="g" x1="21.4" x2="21.4" y1="27.3" y2="68.3"><stop offset="0" style="stop-color:rgb(67.843139%,80.000001%,86.274511%);stop-opacity:1"/><stop offset="1" style="stop-color:rgb(29.803923%,42.352942%,48.235294%);stop-opacity:1"/></linearGradient><linearGradient gradientTransform="matrix(1 0 0 -1 0 100)" gradientUnits="userSpaceOnUse" id="h" x1="21.4" x2="21.4" y1="26.8" y2="68.8"><stop offset="0" style="stop-color:rgb(67.843139%,80.000001%,86.274511%);stop-opacity:1"/><stop offset="1" style="stop-color:rgb(29.803923%,42.352942%,48.235294%);stop-opacity:1"/></linearGradient><linearGradient gradientTransform="matrix(1 0 0 -1 0 102)" gradientUnits="userSpaceOnUse" id="l" x1="45.037" x2="58.537" y1="74.187" y2="87.687"><stop offset="0" style="stop-color:rgb(100%,100%,100%);stop-opacity:1"/><stop offset=".35" style="stop-color:rgb(98.039216%,98.431373%,98.431373%);stop-opacity:1"/><stop offset=".532" style="stop-color:rgb(92.941177%,94.509804%,95.686275%);stop-opacity:1"/><stop offset=".675" style="stop-color:rgb(86.666667%,89.803922%,91.37255%);stop-opacity:1"/><stop offset=".799" style="stop-color:rgb(78.039217%,82.745099%,85.490197%);stop-opacity:1"/><stop offset=".908" style="stop-color:rgb(67.843139%,74.117649%,78.039217%);stop-opacity:1"/><stop offset="1" style="stop-color:rgb(57.254905%,64.705884%,69.01961%);stop-opacity:1"/></linearGradient><clipPath id="b"><path d="M0 0h24v32H0z"/></clipPath><filter filterUnits="objectBoundingBox" height="100%" id="a" width="100%" x="0%" y="0%"><feColorMatrix in="SourceGraphic" values="0 0 0 0 1 0 0 0 0 1 0 0 0 0 1 0 0 0 1 0"/></filter><mask id="k"><g filter="url(#a)"><path d="M0 0h23.04v32H0z" style="fill:rgb(0%,0%,0%);fill-opacity:0.9;stroke:none"/></g></mask><g clip-path="url(#b)" id="j"><path d="M42.004 46.399c0-2.503-1.501-4.504-3.698-5.396v-7.3c0-1.208-.904-2.099-2.1-2.099-1.208 0-2.112.891-2.112 2.1v7.3c-2.197.793-3.698 2.892-3.698 5.395 0 2.502 1.501 4.602 3.698 5.395 0 .11-.097.306-.097.403v18.408c0 1.197.903 2.1 2.1 2.1 1.208 0 2.099-.903 2.099-2.1V52.197c0-.195 0-.293-.098-.403 2.405-.793 3.906-2.893 3.906-5.395Zm-5.798 1.599a1.584 1.584 0 0 1-1.611-1.6c0-.902.708-1.598 1.611-1.598.891 0 1.6.696 1.6 1.599s-.709 1.599-1.6 1.599Zm0 0" style="fill-rule:nonzero;fill:url(#c);stroke-width:1;stroke-linecap:butt;stroke-linejoin:miter;stroke:url(#d);stroke-miterlimit:10" transform="scale(.32)"/><path d="M53.003 33.801c0-1.196-.903-2.1-2.1-2.1-1.208 0-2.1.904-2.1 2.1v17.2c-2.209.793-3.698 2.893-3.698 5.395 0 2.503 1.49 4.603 3.699 5.408 0 .098-.098.293-.098.39v8.411c0 1.197.891 2.1 2.1 2.1 1.196 0 2.1-.903 2.1-2.1v-8.41c0-.195 0-.293-.11-.39 2.209-.806 3.698-2.906 3.698-5.409 0-2.502-1.49-4.492-3.699-5.395v-17.2Zm-2.1 24.195a1.574 1.574 0 0 1-1.599-1.6c0-.89.696-1.599 1.6-1.599.89 0 1.598.708 1.598 1.6 0 .903-.708 1.599-1.599 1.599Zm0 0" style="fill-rule:nonzero;fill:url(#e);stroke-width:1;stroke-linecap:butt;stroke-linejoin:miter;stroke:url(#f);stroke-miterlimit:10" transform="scale(.32)"/><path d="M19.397 70.605c0 1.197.903 2.1 2.1 2.1 1.208 0 2.1-.903 2.1-2.1v-8.41c0-.195 0-.293-.098-.39 2.197-.806 3.698-2.906 3.698-5.409 0-2.502-1.501-4.492-3.698-5.395v-17.2c0-1.196-.904-2.1-2.1-2.1-1.196 0-2.1.904-2.1 2.1v17.2c-2.197.793-3.698 2.893-3.698 5.395 0 2.503 1.501 4.603 3.698 5.408 0 .098-.097.293-.097.39v8.411Zm2.1-15.808c.903 0 1.599.708 1.599 1.6 0 .903-.696 1.599-1.6 1.599-.89 0-1.599-.696-1.599-1.6 0-.89.708-1.599 1.6-1.599Zm0 0" style="fill-rule:nonzero;fill:url(#g);stroke-width:1;stroke-linecap:butt;stroke-linejoin:miter;stroke:url(#h);stroke-miterlimit:10" transform="scale(.32)"/></g></defs><path d="m44.995 1.001 27.002 26.697v71.301H0V1.001Zm0 0" style="fill-rule:nonzero;fill:url(#i);stroke-width:2;stroke-linecap:butt;stroke-linejoin:miter;stroke:rgb(44.313726%,56.862748%,63.137257%);stroke-opacity:1;stroke-miterlimit:4" transform="scale(.32)"/><use xlink:href="#j" mask="url(#k)"/><path d="m44.995 1.001 27.002 26.697H44.995Zm0 0" style="fill-rule:nonzero;fill:url(#l);stroke-width:2;stroke-linecap:butt;stroke-linejoin:bevel;stroke:rgb(44.313726%,56.862748%,63.137257%);stroke-opacity:1;stroke-miterlimit:4" transform="scale(.32)"/></svg>
